X: 4162
T: Lady Lucy Ramshay's    Strathspey
C: By a Lady.
%R: strathspey
B: Niel Gow & Sons "A Fourth Collection of Strathspey Reels, etc." v.4 p.16 #2
Z: 2022 John Chambers <jc:trillian.mit.edu>
M: C
L: 1/8
K: C
% - - - - - - - - - -
V: 1 staves=2
f |\
eg-g>a Tg>ec<a g<ca<c edd>f | eg-g>a Tg>age | f>dB<g ec-c :| e | G>cE>c Td>cde | c<c {cd}e>d cA-Ac |
G>cE>c Td>cde | cG A/B/c/G/ ECC>c || G>cE>c Td>cde | c<c {cd}e>d cA-Ac | .G.c.E.c .F.d.E.c | d<aTg>f ecc |]
% - - - - - - - - - -
% Voice 2 preserves the staff layout in the book.
V: 2 clef=bass middle=d
z | c2c2 c2f2 | e2f2 g2G2 | c2c2 c2e2 | f2g2 c2c :| z | c2c2 G2G2 | c2e2 f2F2 |
e2c2 g2f2 | e2"^#"fg c2c2 || c2c2 g2G2 | c2e2 f2F2 | e2c2 B2c2 | F2G2 c2C |]
N: Strain 2 bar 6 has 5 quarter notes; I made 2 of them 8th notes, but you might like other fixes.


